X:675
T:Lord Drummond
Z:Nigel Gatherer
M:4/4
L:1/8
K:D
Addc  B2 Ad | BABd  edef | Addc  B2 AF | EDEF D3 z :|
A2 AF DEFA  | G2 GF EFGB | A2 AF DEFA  | GFED E3 z :|]
<end>
<start>
